symbols/web/fiber_pin/materialsymbolsrounded/fiber_pin_wght600grad200fill1_20px.svg

<svg xmlns="http://www.w3.org/2000/svg" height="20" width="20"><path d="M12.062 12.521q.23 0 .376-.146.145-.146.145-.396V9.542l1.834 2.666q.104.146.271.23.166.083.333.083.291 0 .51-.209.219-.208.219-.52V8q0-.229-.146-.385-.146-.157-.396-.157-.229 0-.385.146T14.667 8v2.417L12.833 7.75q-.083-.125-.239-.208-.156-.084-.323-.084-.313 0-.531.219-.219.219-.219.511v3.791q0 .229.146.386.145.156.395.156Zm-2.187 0q.25 0 .427-.188.177-.187.177-.437V8.062q0-.25-.177-.427t-.427-.177q-.229 0-.427.177-.198.177-.198.427v3.855q0 .25.198.427t.427.177Zm-4.958 0q.271 0 .448-.177t.177-.448v-1.104h1.75q.52 0 .896-.365.374-.365.374-.906v-.813q0-.52-.374-.885-.376-.365-.896-.365H5.333q-.416 0-.729.302-.312.302-.312.74v3.396q0 .271.177.448t.448.177Zm.625-2.979v-.854h1.77v.854Zm-1.98 7.854q-1.104 0-1.875-.771-.77-.771-.77-1.875v-9.5q0-1.104.77-1.875.771-.771 1.875-.771h12.876q1.104 0 1.874.771.771.771.771 1.875v9.5q0 1.104-.771 1.875-.77.771-1.874.771Z"/></svg>

<svg xmlns="http://www.w3.org/2000/svg" height="20" width="20"><path d="M12.062 12.521Q12.292 12.521 12.438 12.375Q12.583 12.229 12.583 11.979V9.542L14.417 12.208Q14.521 12.354 14.688 12.438Q14.854 12.521 15.021 12.521Q15.312 12.521 15.531 12.312Q15.75 12.104 15.75 11.792V8Q15.75 7.771 15.604 7.615Q15.458 7.458 15.208 7.458Q14.979 7.458 14.823 7.604Q14.667 7.75 14.667 8V10.417L12.833 7.75Q12.75 7.625 12.594 7.542Q12.438 7.458 12.271 7.458Q11.958 7.458 11.74 7.677Q11.521 7.896 11.521 8.188V11.979Q11.521 12.208 11.667 12.365Q11.812 12.521 12.062 12.521ZM9.875 12.521Q10.125 12.521 10.302 12.333Q10.479 12.146 10.479 11.896V8.062Q10.479 7.812 10.302 7.635Q10.125 7.458 9.875 7.458Q9.646 7.458 9.448 7.635Q9.25 7.812 9.25 8.062V11.917Q9.25 12.167 9.448 12.344Q9.646 12.521 9.875 12.521ZM4.917 12.521Q5.188 12.521 5.365 12.344Q5.542 12.167 5.542 11.896V10.792H7.292Q7.812 10.792 8.188 10.427Q8.562 10.062 8.562 9.521V8.708Q8.562 8.188 8.188 7.823Q7.812 7.458 7.292 7.458H5.333Q4.917 7.458 4.604 7.76Q4.292 8.062 4.292 8.5V11.896Q4.292 12.167 4.469 12.344Q4.646 12.521 4.917 12.521ZM5.542 9.542V8.688H7.312Q7.312 8.688 7.312 8.688Q7.312 8.688 7.312 8.688V9.542Q7.312 9.542 7.312 9.542Q7.312 9.542 7.312 9.542ZM3.562 17.396Q2.458 17.396 1.687 16.625Q0.917 15.854 0.917 14.75V5.25Q0.917 4.146 1.687 3.375Q2.458 2.604 3.562 2.604H16.438Q17.542 2.604 18.312 3.375Q19.083 4.146 19.083 5.25V14.75Q19.083 15.854 18.312 16.625Q17.542 17.396 16.438 17.396Z"/></svg>
